X:1
T:Breathe upon Us
T:Russell Kelso Carter, 1891
T:Breathe upon Us
T:Public Domain
T:Public Domain
C:Russell Kelso Carter, 1891
Z:Public Domain
%%score ( 1 2 ) ( 3 4 )
L:1/8
M:6/4
K:G
V:1 treble 
V:2 treble 
V:3 bass 
V:4 bass 
V:1
 [B,G]4 [CA]2 [DB]4 [B,G]2 | [CE]4 [EG]2 [CE]2 [B,D]4 | [DG]4 [DA]2 [GB]4 [Ac]2 | %3
w: 1.~Breathe up- on us,|Lord, from Heav- en,|Fill us with the|
w: 2.~While the Spir- it|hov- ers o’er us,|O- pen all our|
w: 3.~Lift us, Lord, O|lift us high- er,|From the car- nal|
 [Bd]4 [GB]2 (F4 D2) | [DG]4 [DA]2 [GB]4 [DG]2 | [CE]4 [EG]2 [CE]2 [B,D]4 | %6
w: Ho- ly Ghost; *|ise of the Fa-|ther giv- en, Send|
w: hearts, we pray; *|Thine im- age, Lord,|re- store us, Wit-|
w: mind set free; *|us with re- fin-|ing fi- re, Give|
 [Gd]4 [Ge]2 [Gd]2 [GB]4 | [FA]4 [DG]2 [DG]6 ||"^Refrain" [FA]4 [GB]2 [Ac]4 [FA]2 | %9
w: us now a Pen-|te- cost. *||
w: ness in our souls|to- day. Breathe|up- on us, breathe|
w: us per- fect lib-|er- ty. *||
 [Bd]4 [Ac]2 [Ac]2 [GB]4 | [Bd]4 [ce]2 [Bd]4 [GB]2 | [GA]4 [GB]2 (FED C3) | %12
w: |||
w: up- on us, With|Thy love our hearts|in- spire. Breathe * * *|
w: |||
 [DG]4 [DA]2 [GB]4 [DG]2 | [CE]4 [EG]2 [CE]2 [B,D]4 | [Gd]4 [Ge]2 [Gd]2 [GB]4 | %15
w: |||
w: on us, breathe up-|on us, Lord, bap-|tize us now with|
w: |||
 [FA]4 [DG]2 [DG]6 |] %16
w: |
w: fire. * *|
w: |
V:2
 x12 | x12 | x12 | x6 A6 | x12 | x12 | x12 | x12 || x12 | x12 | x12 | x6 A6 | x12 | x12 | x12 | %15
w: |||Prom-||||||||||||
w: |||To||||||||up-||||
w: |||Fill||||||||||||
 x12 |] %16
w: |
w: |
w: |
V:3
 [G,,G,]4 [G,,G,]2 [G,,G,]4 [G,,G,]2 | [C,G,]4 [C,C]2 [C,G,]2 [G,,G,]4 | %2
 [G,B,]4 [G,C]2 [G,D]4 [G,D]2 | [G,D]4 [G,D]2 (D4 C2) | [G,B,]4 [G,C]2 [G,D]4 [G,B,]2 | %5
 [C,G,]4 [C,C]2 [C,G,]2 [G,,G,]4 | [G,B,]4 [G,C]2 [G,B,]2 [G,D]4 | [D,C]4 [G,,B,]2 [G,,G,B,]6 || %8
 [D,D]4 [D,D]2 [D,D]4 [D,D]2 | [D,D]4 [D,D]2 [G,D]2 [G,D]4 | [G,D]4 [G,D]2 [G,D]4 [G,D]2 | %11
 [A,^C]4 [A,C]2 (D=CB, A,3) | [G,B,]4 [G,C]2 [G,D]4 [G,B,]2 | [C,G,]4 [C,C]2 [C,G,]2 [G,,G,]4 | %14
 [G,B,]4 [G,C]2 [G,B,]2 [G,D]4 | [D,C]4 [G,,B,]2 [G,,G,B,]6 |] %16
V:4
 x12 | x12 | x12 | x6 D,6 | x12 | x12 | x12 | x12 || x12 | x12 | x12 | x6 D,6 | x12 | x12 | x12 | %15
 x12 |] %16

